X:398
T:Banks of Allen, The
O:england
M:6/8
L:1/8
R:Jig
K:D
DE|"D"FGF FED|"D"FAA A2 d|"G"Bdd "D"Add|"G"Bdd "A"ADE|"D"FGF FED|"D"DAA
A2 d|
"G"BdB "D"AFD|"D"FEE "A"E:||:de|"D"fgf fed|"D"faa a2g|"D"fgf fed|"G"gbb
b2a|
"D"fga "A"efg|"D"def fed|"G"BdB "D"AFD|"D"FEE "A"E:||
